customWidgets/icons/trash_navigation_unselected.svg

<svg width="16" height="16" viewBox="0 0 16 16" fill="none" xmlns="http://www.w3.org/2000/svg">
<path d="M2.90909 13.7826L2.17022 13.9114C2.18352 13.9876 2.20855 14.0614 2.24442 14.13L2.90909 13.7826ZM13.0909 13.7826L13.7556 14.13C13.7915 14.0614 13.8165 13.9876 13.8298 13.9114L13.0909 13.7826ZM10.1093 8.54198C10.4087 8.25567 10.4192 7.78091 10.1329 7.48158C9.84658 7.18225 9.37182 7.1717 9.07249 7.45802L10.1093 8.54198ZM5.89067 10.5015C5.59135 10.7878 5.5808 11.2626 5.86711 11.5619C6.15342 11.8612 6.62818 11.8718 6.92751 11.5855L5.89067 10.5015ZM6.92751 7.45802C6.62818 7.1717 6.15342 7.18225 5.86711 7.48158C5.5808 7.78091 5.59135 8.25567 5.89067 8.54198L6.92751 7.45802ZM9.07249 11.5855C9.37182 11.8718 9.84658 11.8612 10.1329 11.5619C10.4192 11.2626 10.4087 10.7878 10.1093 10.5015L9.07249 11.5855ZM14.25 2.82609C14.25 2.66495 14.3617 2.71009 14.0562 2.89853C13.7923 3.06132 13.3605 3.23508 12.7604 3.39161C11.5716 3.70175 9.88819 3.90217 8 3.90217V5.40217C9.97781 5.40217 11.7944 5.19381 13.1391 4.84304C13.8058 4.66911 14.3991 4.44939 14.8436 4.17523C15.2465 3.92674 15.75 3.49149 15.75 2.82609H14.25ZM8 3.90217C6.11181 3.90217 4.42843 3.70175 3.23957 3.39161C2.63954 3.23508 2.20774 3.06132 1.94381 2.89853C1.63827 2.71009 1.75 2.66495 1.75 2.82609H0.25C0.25 3.49149 0.753482 3.92674 1.15638 4.17523C1.60089 4.44939 2.19421 4.66911 2.86094 4.84304C4.20557 5.19381 6.02219 5.40217 8 5.40217V3.90217ZM1.75 2.82609C1.75 2.98723 1.63827 2.94209 1.94381 2.75364C2.20774 2.59086 2.63954 2.41709 3.23957 2.26056C4.42843 1.95042 6.11181 1.75 8 1.75V0.25C6.02219 0.25 4.20557 0.458361 2.86094 0.809135C2.19421 0.983064 1.60089 1.20278 1.15638 1.47694C0.753482 1.72544 0.25 2.16069 0.25 2.82609H1.75ZM8 1.75C9.88819 1.75 11.5716 1.95042 12.7604 2.26056C13.3605 2.41709 13.7923 2.59086 14.0562 2.75364C14.3617 2.94209 14.25 2.98723 14.25 2.82609H15.75C15.75 2.16069 15.2465 1.72544 14.8436 1.47694C14.3991 1.20278 13.8058 0.983064 13.1391 0.809135C11.7944 0.458361 9.97781 0.25 8 0.25V1.75ZM0.261132 2.95483L2.17022 13.9114L3.64796 13.6539L1.73887 2.69734L0.261132 2.95483ZM13.8298 13.9114L15.7389 2.95483L14.2611 2.69734L12.352 13.6539L13.8298 13.9114ZM2.90909 13.7826C2.24442 14.13 2.24491 14.131 2.24541 14.1319C2.24558 14.1322 2.24608 14.1332 2.24641 14.1338C2.24709 14.1351 2.24778 14.1364 2.24849 14.1377C2.2499 14.1404 2.25137 14.1431 2.2529 14.1458C2.25595 14.1514 2.25924 14.1572 2.26277 14.1632C2.26983 14.1754 2.27787 14.1886 2.28697 14.2027C2.30519 14.2309 2.32759 14.2628 2.35493 14.2977C2.40974 14.3676 2.48352 14.4483 2.58172 14.535C2.77851 14.7088 3.06797 14.9018 3.49066 15.0815C4.3303 15.4385 5.71204 15.75 8 15.75V14.25C5.83341 14.25 4.6697 13.9528 4.07752 13.7011C3.7843 13.5764 3.63627 13.4651 3.57453 13.4106C3.54347 13.3832 3.53273 13.3688 3.53534 13.3721C3.53658 13.3737 3.54096 13.3795 3.54768 13.3899C3.55103 13.3951 3.55495 13.4014 3.55933 13.409C3.56153 13.4127 3.56383 13.4168 3.56624 13.4212C3.56744 13.4233 3.56867 13.4256 3.56993 13.4279C3.57056 13.4291 3.57119 13.4303 3.57183 13.4315C3.57215 13.4321 3.57263 13.433 3.57279 13.4333C3.57327 13.4342 3.57376 13.4352 2.90909 13.7826ZM8 15.75C10.288 15.75 11.6697 15.4385 12.5093 15.0815C12.932 14.9018 13.2215 14.7088 13.4183 14.535C13.5165 14.4483 13.5903 14.3676 13.6451 14.2977C13.6724 14.2628 13.6948 14.2309 13.713 14.2027C13.7221 14.1886 13.7302 14.1754 13.7372 14.1632C13.7408 14.1572 13.744 14.1514 13.7471 14.1458C13.7486 14.1431 13.7501 14.1404 13.7515 14.1377C13.7522 14.1364 13.7529 14.1351 13.7536 14.1338C13.7539 14.1332 13.7544 14.1322 13.7546 14.1319C13.7551 14.131 13.7556 14.13 13.0909 13.7826C12.4262 13.4352 12.4267 13.4342 12.4272 13.4333C12.4274 13.433 12.4279 13.4321 12.4282 13.4315C12.4288 13.4303 12.4294 13.4291 12.4301 13.4279C12.4313 13.4256 12.4326 13.4233 12.4338 13.4212C12.4362 13.4168 12.4385 13.4127 12.4407 13.409C12.4451 13.4014 12.449 13.3951 12.4523 13.3899C12.459 13.3795 12.4634 13.3737 12.4647 13.3721C12.4673 13.3688 12.4565 13.3832 12.4255 13.4106C12.3637 13.4651 12.2157 13.5764 11.9225 13.7011C11.3303 13.9528 10.1666 14.25 8 14.25V15.75ZM9.07249 7.45802L5.89067 10.5015L6.92751 11.5855L10.1093 8.54198L9.07249 7.45802ZM5.89067 8.54198L9.07249 11.5855L10.1093 10.5015L6.92751 7.45802L5.89067 8.54198Z" fill="white"/>
</svg>

<svg xmlns="http://www.w3.org/2000/svg" width="16" height="16" fill="none" viewBox="0 0 16 16">
  <path fill="#fff" d="M2.91 13.783l-.74.128a.75.75 0 00.074.219l.665-.347zm10.18 0l.666.347a.75.75 0 00.074-.219l-.74-.128zm-2.98-5.241a.75.75 0 10-1.038-1.084l1.037 1.084zm-4.22 1.96a.75.75 0 001.038 1.083L5.89 10.502zm1.038-3.044A.75.75 0 105.89 8.542l1.037-1.084zm2.144 4.127a.75.75 0 001.037-1.084l-1.037 1.085zm5.178-8.759c0-.161.112-.116-.194.073-.264.162-.695.336-1.296.493-1.188.31-2.872.51-4.76.51v1.5c1.978 0 3.794-.208 5.14-.559.666-.174 1.26-.394 1.704-.668.402-.248.906-.684.906-1.349h-1.5zM8 3.902c-1.888 0-3.572-.2-4.76-.51-.6-.157-1.032-.33-1.296-.493-.306-.189-.194-.234-.194-.073H.25c0 .665.503 1.1.906 1.35.445.273 1.038.493 1.705.667 1.345.35 3.161.56 5.139.56v-1.5zM1.75 2.826c0 .161-.112.116.194-.072.264-.163.696-.337 1.296-.493C4.428 1.95 6.112 1.75 8 1.75V.25c-1.978 0-3.794.208-5.14.56-.666.173-1.26.393-1.704.667-.403.248-.906.684-.906 1.35h1.5zM8 1.75c1.888 0 3.572.2 4.76.51.6.157 1.032.33 1.296.494.306.188.194.233.194.072h1.5c0-.665-.504-1.1-.906-1.35-.445-.273-1.038-.493-1.705-.667C11.794.46 9.978.25 8 .25v1.5zM.261 2.955l1.91 10.956 1.477-.257-1.91-10.957-1.477.258zM13.83 13.91l1.909-10.956-1.478-.258-1.909 10.957 1.478.257zm-10.92-.128c-.666.347-.665.348-.665.349l.001.002a.246.246 0 00.007.012.606.606 0 00.034.057 1.804 1.804 0 00.295.332c.197.174.486.367.909.546.84.357 2.221.669 4.509.669v-1.5c-2.167 0-3.33-.297-3.922-.549a1.869 1.869 0 01-.503-.29c-.032-.028-.042-.042-.04-.039a.267.267 0 01.024.037.403.403 0 01.007.012l.004.007.002.003v.002c.001.001.002.002-.663.35zM8 15.75c2.288 0 3.67-.312 4.51-.668.422-.18.712-.373.908-.547a1.804 1.804 0 00.295-.332.895.895 0 00.024-.04l.01-.017a.322.322 0 00.005-.008c0-.002 0-.003.002-.004v-.002c.001-.001.002-.002-.663-.35a25.826 25.826 0 01-.663-.35l.002-.004a.202.202 0 01.01-.019.54.54 0 01.025-.037c.002-.003-.008.011-.04.039a1.87 1.87 0 01-.503.29c-.592.252-1.755.549-3.922.549v1.5zm1.072-8.292l-3.181 3.043 1.037 1.085 3.181-3.044-1.037-1.084zM5.891 8.542l3.181 3.043 1.037-1.084-3.181-3.043L5.89 8.542z"/>
</svg>
